assets/Scroll/Flat/scroll_flat.svg

<svg width="32" height="32" viewBox="0 0 32 32" fill="none" xmlns="http://www.w3.org/2000/svg">
<path d="M23.5103 2.01H8.60027V2H4.45026V5H6.95026V27.07C6.95026 28.69 8.27026 30.01 9.89026 30.01H25.5603C26.3303 30.01 26.9503 29.39 26.9503 28.62V5.45C26.9503 3.55 25.4103 2.01 23.5103 2.01Z" fill="#FFDEA7"/>
<path d="M10.8603 29.99C10.8603 29.99 13.1003 29.66 13.5903 27.49C13.6603 27.19 14.0003 26.97 14.4003 26.97H29.1303C29.6503 26.97 30.0403 27.33 29.9503 27.71C29.7203 28.6 29.3503 30 25.5803 30C20.0103 30 10.8603 29.99 10.8603 29.99Z" fill="#E19747"/>
<path d="M6.95026 5C6.95026 3.34 5.83027 2 4.45026 2C3.26026 2 2.27028 3 2.01028 4.33C1.95028 4.67 2.16026 5 2.45026 5H6.95026Z" fill="#D3883E"/>
<path d="M10.4203 11.87C10.1441 11.87 9.92029 12.0939 9.92029 12.37C9.92029 12.6461 10.1441 12.87 10.4203 12.87H23.5003C23.7764 12.87 24.0003 12.6461 24.0003 12.37C24.0003 12.0939 23.7764 11.87 23.5003 11.87H10.4203ZM9.98029 15.33C9.98029 15.0539 10.2041 14.83 10.4803 14.83H23.5003C23.7764 14.83 24.0003 15.0539 24.0003 15.33C24.0003 15.6062 23.7764 15.83 23.5003 15.83H10.4803C10.2041 15.83 9.98029 15.6062 9.98029 15.33ZM10.4803 17.85C10.2041 17.85 9.98029 18.0738 9.98029 18.35C9.98029 18.6261 10.2041 18.85 10.4803 18.85H23.5003C23.7764 18.85 24.0003 18.6261 24.0003 18.35C24.0003 18.0738 23.7764 17.85 23.5003 17.85H10.4803ZM10.5103 20.83C10.2341 20.83 10.0103 21.0539 10.0103 21.33C10.0103 21.6062 10.2341 21.83 10.5103 21.83H18.4703C18.7464 21.83 18.9703 21.6062 18.9703 21.33C18.9703 21.0539 18.7464 20.83 18.4703 20.83H10.5103Z" fill="#D3883E"/>
</svg>

<svg xmlns="http://www.w3.org/2000/svg" width="32" height="32" fill="none"><path fill="#FFDEA7" d="M23.51 2.01H8.6V2H4.45v3h2.5v22.07c0 1.62 1.32 2.94 2.94 2.94h15.67c.77 0 1.39-.62 1.39-1.39V5.45c0-1.9-1.54-3.44-3.44-3.44Z"/><path fill="#E19747" d="M10.86 29.99s2.24-.33 2.73-2.5c.07-.3.41-.52.81-.52h14.73c.52 0 .91.36.82.74-.23.89-.6 2.29-4.37 2.29-5.57 0-14.72-.01-14.72-.01Z"/><path fill="#D3883E" d="M6.95 5c0-1.66-1.12-3-2.5-3-1.19 0-2.18 1-2.44 2.33-.06.34.15.67.44.67h4.5ZM10.42 11.87a.5.5 0 1 0 0 1H23.5a.5.5 0 0 0 0-1H10.42Zm-.44 3.46a.5.5 0 0 1 .5-.5H23.5a.5.5 0 0 1 0 1H10.48a.5.5 0 0 1-.5-.5Zm.5 2.52a.5.5 0 1 0 0 1H23.5a.5.5 0 0 0 0-1H10.48Zm.03 2.98a.5.5 0 1 0 0 1h7.96a.5.5 0 1 0 0-1h-7.96Z"/></svg>
